Modules/BetterCms.Module.Root/Scss/base_64/icons/overlay-delete.svg

<svg xmlns="http://www.w3.org/2000/svg" width="14" height="18" viewBox="0 0 14 18">
 <path fill="#fff" fill-rule="evenodd" d="m0 4.986v-1.119c0 0 .003-.809 4.083-1.076v-1.438c0-.746.611-1.353 1.361-1.353h3.112c.75 0 1.361.607 1.361 1.353v1.438c4.08.267 4.083 1.076 4.083 1.076v1.119h-14m8-2.992h-2v.998c.422-.011.512 0 1 0 .488 0 .578-.011 1 0v-.998m3.974 16.006h-9.948l-1.023-11.012h11.994l-1.023 11.012m-7.683-8.733c-.018-.294-.29-.518-.612-.502-.319.016-.564.267-.547.561l.387 6.394c.017.284.273.504.579.504.011 0 .022-.001.033-.001.32-.016.565-.268.547-.562l-.387-6.394m3.289.03c0-.295-.259-.533-.58-.533-.32 0-.58.238-.58.533v6.394c0 .294.26.533.58.533.321 0 .58-.239.58-.533v-6.394m2.741-.532c-.315-.014-.594.208-.612.502l-.387 6.394c-.018.294.228.546.547.562.012 0 .022.001.033.001.306 0 .562-.22.579-.504l.387-6.394c.018-.293-.227-.545-.547-.561"/>
</svg>

<svg xmlns="http://www.w3.org/2000/svg" preserveAspectRatio="xMidYMid" width="14" height="18" viewBox="0 0 14 18">
  <path fill="#ffffff" fill-rule="evenodd" d="M0.000,4.986 L0.000,3.867 C0.000,3.867 0.003,3.058 4.083,2.791 L4.083,1.353 C4.083,0.607 4.694,0.000 5.444,0.000 L8.556,0.000 C9.306,0.000 9.917,0.607 9.917,1.353 L9.917,2.791 C13.997,3.058 14.000,3.867 14.000,3.867 L14.000,4.986 L0.000,4.986 ZM8.000,1.994 L6.000,1.994 L6.000,2.992 C6.422,2.981 6.512,2.992 7.000,2.992 C7.488,2.992 7.578,2.981 8.000,2.992 L8.000,1.994 ZM11.974,18.000 L2.026,18.000 L1.003,6.988 L12.997,6.988 L11.974,18.000 ZM4.291,9.267 C4.273,8.973 4.001,8.749 3.679,8.765 C3.360,8.781 3.115,9.032 3.132,9.326 L3.519,15.720 C3.536,16.004 3.792,16.224 4.098,16.224 C4.109,16.224 4.120,16.223 4.131,16.223 C4.451,16.207 4.696,15.955 4.678,15.661 L4.291,9.267 ZM7.580,9.297 C7.580,9.002 7.321,8.764 7.000,8.764 C6.680,8.764 6.420,9.002 6.420,9.297 L6.420,15.691 C6.420,15.985 6.680,16.224 7.000,16.224 C7.321,16.224 7.580,15.985 7.580,15.691 L7.580,9.297 ZM10.321,8.765 C10.006,8.751 9.727,8.973 9.709,9.267 L9.322,15.661 C9.304,15.955 9.550,16.207 9.869,16.223 C9.881,16.223 9.891,16.224 9.902,16.224 C10.208,16.224 10.464,16.004 10.481,15.720 L10.868,9.326 C10.886,9.033 10.641,8.781 10.321,8.765 Z"/>
</svg>
